icons/BatteryHorizontalElectricity.svg

<svg width="24" height="24" viewBox="0 0 24 24" fill="none" xmlns="http://www.w3.org/2000/svg">
<path fill-rule="evenodd" clip-rule="evenodd" d="M5.50003,6.25004h3.81251l-1.12502,1.5h-2.68749c-0.69036,0 -1.25,0.55964 -1.25,1.25v5.99996c0,0.6904 0.55964,1.25 1.25,1.25h1.26008c0.04549,0.5412 0.23751,1.0603 0.55293,1.5h-1.81301c-1.51878,0 -2.75,-1.2312 -2.75,-2.75v-5.99996c0,-1.51879 1.23122,-2.75 2.75,-2.75zM17.25,15v-5.99996c0,-0.69036 -0.5596,-1.25 -1.25,-1.25h-1.26c-0.0455,-0.54115 -0.2375,-1.06027 -0.553,-1.5h1.813c1.5188,0 2.75,1.23122 2.75,2.75v5.99996c0,1.5188 -1.2312,2.75 -2.75,2.75h-3.8125l1.125,-1.5h2.6875c0.6904,0 1.25,-0.5596 1.25,-1.25zM21.5,14.25c0,0.4143 -0.3358,0.75 -0.75,0.75c-0.4142,0 -0.75,-0.3357 -0.75,-0.75v-4.49996c0,-0.41422 0.3358,-0.75 0.75,-0.75c0.4142,0 0.75,0.33578 0.75,0.75zM12.0981,7.33566c0.3258,0.17072 0.4798,0.55255 0.3634,0.90151l-0.7943,2.38293l1.4182,0.709c0.1989,0.0995 0.3435,0.2821 0.3946,0.4985c0.0511,0.2165 0.0035,0.4444 -0.13,0.6223l-3,4.0001c-0.2207,0.2943 -0.62222,0.3851 -0.94805,0.2143c-0.32583,-0.1707 -0.47976,-0.5525 -0.36343,-0.9015l0.7943,-2.3828l-1.41821,-0.7092c-0.19891,-0.0994 -0.34343,-0.2821 -0.39452,-0.4985c-0.05109,-0.2164 -0.0035,-0.4444 0.12994,-0.6223l2.99997,-4c0.2207,-0.29427 0.6223,-0.38505 0.9481,-0.21434z" fill="#002B51"/>
</svg>

<svg width="24" height="24" viewBox="0 0 24 24" fill="none" xmlns="http://www.w3.org/2000/svg">
<path fill-rule="evenodd" clip-rule="evenodd" d="M5.50003 6.25004H9.31254L8.18752 7.75004H5.50003C4.80967 7.75004 4.25003 8.30968 4.25003 9.00004V15C4.25003 15.6904 4.80967 16.25 5.50003 16.25H6.76011C6.8056 16.7912 6.99762 17.3103 7.31304 17.75H5.50003C3.98125 17.75 2.75003 16.5188 2.75003 15V9.00004C2.75003 7.48125 3.98125 6.25004 5.50003 6.25004ZM16 16.25H13.3125L12.1875 17.75H16C17.5188 17.75 18.75 16.5188 18.75 15V9.00004C18.75 7.48126 17.5188 6.25004 16 6.25004H14.187C14.5025 6.68977 14.6945 7.20889 14.74 7.75004H16C16.6904 7.75004 17.25 8.30968 17.25 9.00004V15C17.25 15.6904 16.6904 16.25 16 16.25ZM21.5 9.75004C21.5 9.33582 21.1642 9.00004 20.75 9.00004C20.3358 9.00004 20 9.33582 20 9.75004V14.25C20 14.6643 20.3358 15 20.75 15C21.1642 15 21.5 14.6643 21.5 14.25V9.75004ZM12.0981 7.33566C12.4239 7.50638 12.5779 7.88821 12.4615 8.23717L11.6672 10.6201L13.0854 11.3291C13.2843 11.4286 13.4289 11.6112 13.48 11.8276C13.5311 12.0441 13.4835 12.272 13.35 12.4499L10.35 16.45C10.1293 16.7443 9.72778 16.8351 9.40195 16.6643C9.07612 16.4936 8.92219 16.1118 9.03852 15.7628L9.83282 13.38L8.41461 12.6708C8.2157 12.5714 8.07118 12.3887 8.02009 12.1723C7.969 11.9559 8.01659 11.7279 8.15003 11.55L11.15 7.55C11.3707 7.25573 11.7723 7.16495 12.0981 7.33566Z" fill="#002B51"/>
</svg>
